X: 1
T:Foot's Minuet. WCl.67
M:3/4
L:1/4
Q:80
S:William Clarke MS,Lincoln,1770.
R:Minuet
O:Lincoln
A:England
N:
Z:vmp.Barry Callaghan
K:D
afa | g2f | ede | (f/2e/2)(f/2g/2)f | afa | "tr"g2f | ede | f3 :|
|: fff | (e/2d/2)(e/2f/2)e | ggg | (f/2e/2)(f/2g/2)f |
(d/2e/2)(f/2g/2)(a/2b/2) | agf | ((3b/2a/2g/2)  f~e | d3 :|
